icons/midnadark/actions/24/code-typedef.svg

<?xml version="1.0" encoding="UTF-8" standalone="no"?>
<!-- Created with Inkscape (http://www.inkscape.org/) -->

<svg
   xmlns:dc="http://purl.org/dc/elements/1.1/"
   xmlns:cc="http://creativecommons.org/ns#"
   xmlns:rdf="http://www.w3.org/1999/02/22-rdf-syntax-ns#"
   xmlns:svg="http://www.w3.org/2000/svg"
   xmlns="http://www.w3.org/2000/svg"
   xmlns:sodipodi="http://sodipodi.sourceforge.net/DTD/sodipodi-0.dtd"
   xmlns:inkscape="http://www.inkscape.org/namespaces/inkscape"
   width="22"
   height="22"
   id="svg3869"
   version="1.1"
   inkscape:version="0.91 r13725"
   sodipodi:docname="code-typedef.svg">
  <defs
     id="defs3871">
    <inkscape:perspective
       sodipodi:type="inkscape:persp3d"
       inkscape:vp_x="0 : 12 : 1"
       inkscape:vp_y="0 : 1000 : 0"
       inkscape:vp_z="24 : 12 : 1"
       inkscape:persp3d-origin="12 : 8 : 1"
       id="perspective4146" />
    <inkscape:perspective
       sodipodi:type="inkscape:persp3d"
       inkscape:vp_x="0 : 12 : 1"
       inkscape:vp_y="0 : 1000 : 0"
       inkscape:vp_z="24 : 12 : 1"
       inkscape:persp3d-origin="12 : 8 : 1"
       id="perspective4090" />
  </defs>
  <sodipodi:namedview
     id="base"
     pagecolor="#ffffff"
     bordercolor="#666666"
     borderopacity="1.0"
     inkscape:pageopacity="0.0"
     inkscape:pageshadow="2"
     inkscape:zoom="15.999999"
     inkscape:cx="-5.6381374"
     inkscape:cy="9.3110415"
     inkscape:document-units="px"
     inkscape:current-layer="layer1"
     showgrid="true"
     fit-margin-top="0"
     fit-margin-left="0"
     fit-margin-right="0"
     fit-margin-bottom="0"
     inkscape:window-width="1366"
     inkscape:window-height="633"
     inkscape:window-x="0"
     inkscape:window-y="33"
     inkscape:window-maximized="1"
     inkscape:showpageshadow="false"
     inkscape:object-nodes="true"
     inkscape:snap-bbox="true">
    <inkscape:grid
       type="xygrid"
       id="grid4132" />
    <sodipodi:guide
       position="4,18"
       orientation="18,0"
       id="guide4138" />
    <sodipodi:guide
       position="5,3"
       orientation="0,18"
       id="guide4140" />
    <sodipodi:guide
       position="20,2.0000174"
       orientation="-18,0"
       id="guide4142" />
    <sodipodi:guide
       position="2,21"
       orientation="0,-18"
       id="guide4144" />
    <sodipodi:guide
       position="3,19.000017"
       orientation="16,0"
       id="guide4146" />
    <sodipodi:guide
       position="2,4"
       orientation="0,16"
       id="guide4148" />
    <sodipodi:guide
       position="21,20"
       orientation="-16,0"
       id="guide4150" />
    <sodipodi:guide
       position="2,20"
       orientation="0,-16"
       id="guide4152" />
  </sodipodi:namedview>
  <metadata
     id="metadata3874">
    <rdf:RDF>
      <cc:Work
         rdf:about="">
        <dc:format>image/svg+xml</dc:format>
        <dc:type
           rdf:resource="http://purl.org/dc/dcmitype/StillImage" />
        <dc:title />
      </cc:Work>
    </rdf:RDF>
  </metadata>
  <g
     inkscape:label="Capa 1"
     inkscape:groupmode="layer"
     id="layer1"
     transform="translate(-326,-534.3622)">
    <g
       transform="translate(-52.857187,-5.7142734)"
       id="layer1-6"
       inkscape:label="Capa 1"
       style="fill:#ffffff;fill-opacity:1">
      <path
         id="rect4108"
         transform="translate(378.85714,540.07647)"
         d="M 5,3 C 3.892,3 3,3.892 3,5 3,6.108 3.892,7 5,7 l 0,3 -1.0156248,0 C 4,10 3,10.00609 3,11 l 0,6 c 0,0 -0.010898,1 0.9882815,1 L 5,18 c 0,0 0.00115,1 1.0078128,1 L 18.014544,19 C 18,19 19,19.012 19,18.028155 l 0,-1.038563 C 19,16.989592 18.999369,16 18.003496,16 L 6.0312503,16 C 6,16 5,15.977138 5,17 l -1,0 0,-6 1,0 0,2.006592 C 5,13 4.9965299,14 5.9937283,14 L 17.992447,14 C 17.992447,14 19,14 19,13 L 19,6.0183879 C 19,6.0183879 19.030418,5 18.025593,5 L 7,5 C 7,3.892 6.108,3 5,3 Z"
         style="opacity:1;fill:#ffffff;fill-opacity:1;stroke:none"
         inkscape:connector-curvature="0"
         sodipodi:nodetypes="ssccccccccccccccccccccccccs" />
    </g>
  </g>
</svg>

<svg xmlns="http://www.w3.org/2000/svg" viewBox="0 0 22 22"><path transform="translate(0-.002)" d="m5 3c-1.108 0-2 .892-2 2 0 1.108.892 2 2 2v3h-1.016c.016 0-.984.006-.984 1v6c0 0-.011 1 .988 1h1.012c0 0 .0001 1 1.01 1h12.01c-.015 0 .985.012.985-.972v-1.039c0 0-.0001-.99-.997-.99h-11.972c-.031 0-1.031-.023-1.031 1h-1v-6h1v2.01c0-.007-.003.993.994.993h11.999c0 0 1.01 0 1.01-1v-6.982c0 0 .03-1.018-.974-1.018h-11.03c0-1.108-.892-2-2-2" fill="#fff"/></svg>
